X:1
T:Title
%%score { ( 1 3 ) | ( 2 4 ) }
L:1/8
M:6/8
K:Ab
V:1 treble nm="Grand Piano"
V:3 treble 
V:2 bass 
V:4 bass 
V:1
 z3 z2[Q:1/4=77] [A,C]/[B,D]/ | [CE][CE]>[CE] [DF][CE]>[CE] | [CA][DB][CEA] G2 E | EG>A Bc>B | %4
[M:5/8] [CA]-[CA]- [CA]3 |[M:1/8] [A,C]/[B,D]/ |[M:3/4] [CE][CE]- [CE]/[CE]/[DF] [CE]>[CE] | %7
 [CA][DB] [CEA] G2 G | BG- G/E/[=DA] .[DG]>A, |[M:5/8] E-E- E3 |[M:1/8] [Ec]/[Ec]/ | %11
[M:3/4] [FB]F F F2 B/B/ | [CA][CE] [CE] [CE]2 [CA]/[CEA]/ | GG- G/A/B B>d | %14
[M:5/8] [Ec]-[Ec]- [Ec]3 |[M:1/8] [Ec]/[Ec]/ |[M:3/4] [FB]F FF FB | %17
 [CA][CE] [CE] [CE]2 [CA]/[CEA]/ | GG- G/A/c c>B | [CA]6 | [Ec]4 z2 | [CE]6 | B4 z2 | [Ac]6 | %24
 [Ec]4 z2 | [Fd]4 z2 | AG Ac c>B |[M:5/8] [CA]-[CA]- [CA]3 |] %28
V:2
 z3 z2 [A,,E,]/[A,,E,]/ | [A,,A,][A,,A,]>[A,,A,] [A,,A,][A,,A,]>[A,,A,] | %2
 [A,,A,][A,,A,]A,, [E,B,E]2 [E,G,D] | [E,G,D][E,B,D]>[E,A,C] [E,G,D][E,G,E]>[E,G,D] | %4
[M:5/8] [A,,A,]-[A,,A,]- [A,,A,]3 |[M:1/8] [A,,E,] | %6
[M:3/4] [A,,A,][A,,A,]- [A,,A,]/[A,,A,]/[A,,A,] [A,,A,]>[A,,A,] | %7
 [A,,A,][A,,A,] A,, [E,B,E]2 [E,B,E] | [E,G,E][E,B,E]- [E,B,E]/[E,G,]/[B,,B,] [B,,B,].[B,,B,] | %9
[M:5/8] [E,G,]-[E,G,]- [E,G,]3 |[M:1/8] [A,,A,]/[A,,A,]/ | %11
[M:3/4] [D,A,][D,A,D] [D,A,D] [D,A,D]2 [D,F,D]/[D,F,D]/ | %12
 [A,,A,][A,,A,] [A,,A,] [A,,A,]2 [A,,A,]/A,,/ | %13
 [E,B,E][E,B,E]- [E,B,E]/[E,CE]/[E,DE] [E,DE]>[E,G,E] |[M:5/8] [A,,A,]-[A,,A,]- [A,,A,]3 | %15
[M:1/8] [A,,A,]/[A,,A,]/ |[M:3/4] [D,A,][D,A,D] [D,A,D]D D[D,F,D] | %17
 [A,,A,][A,,A,] [A,,A,] [A,,A,]2 [A,,A,]/A,,/ | %18
 [E,B,E][E,B,E]- [E,B,E]/[E,CE]/[E,A,E] [E,A,E]>[E,G,D] | [A,,A,]6 | %20
 [A,,A,]A,, A,,A,, [A,,A,][A,,A,] | [A,,A,]A,, A,, A,,2 C | E-[E,E-] [E,E-][E,E] [E,B,][E,B,] | %23
 [A,,A,]2 A,, A,,2 C/D/ | [A,,A,]A,, A,,A,, [B,,G,][C,A,] | [D,A,]D, D,D, [D,A,E][D,A,D] | %26
 [E,A,C][E,B,D] [E,CE][E,A,E] [E,A,E]>[E,G,D] |[M:5/8] [A,,A,]-[A,,A,]- [A,,A,]3 |] %28
V:3
 x6 | x6 | x6 | x6 |[M:5/8] x5 |[M:1/8] x |[M:3/4] x6 | x6 | z2 z2 z [=DF] |[M:5/8] x5 |[M:1/8] x | %11
[M:3/4] x6 | x6 | x6 |[M:5/8] x5 |[M:1/8] x |[M:3/4] x6 | x6 | x6 | x6 | z A, A,A, [DB][CA] | %21
 z A, A, A,2 A | z G, G,G, [Ge][Gd] | z2 A, A,2 A/B/ | z A, A,A, [EB][EA] | z A, A,A, cB | x6 | %27
[M:5/8] x5 |] %28
V:4
 x6 | x6 | x6 | x6 |[M:5/8] x5 |[M:1/8] x |[M:3/4] x6 | x6 | x6 |[M:5/8] x5 |[M:1/8] x | %11
[M:3/4] x6 | x6 | x6 |[M:5/8] x5 |[M:1/8] x |[M:3/4] z2 z .[D,A,]3 | x6 | x6 | x6 | x6 | x6 | %22
 .[E,G,]2 z2 z2 | x6 | x6 | x6 | x6 |[M:5/8] x5 |] %28

